src/topics/icons/aws-route53.svg

<svg height="310" preserveAspectRatio="xMidYMid" viewBox="0 0 256 310" width="256" xmlns="http://www.w3.org/2000/svg"><path d="m73.871 282.05 54.097 27.051 5.284-3.942-2.224-301.561-3.06-3.598-54.097 27.051z" fill="#9d5025"/><path d="m182.065 282.05-54.097 27.051v-309.101l54.097 27.051z" fill="#f68536"/><path d="m107.571 112.513-18.984 2.764-88.587-9.981.375-.983 14.375-4.313 1.529.866.346-.866 90.375 10.563z" fill="#6b3a19"/><path d="m0 63.988 16.279-8.144v45.022l-16.279 4.43z" fill="#9d5025"/><path d="m256 131.063-90.661 4.869-16.975-1.164 3.198-1.33 88.375-5.063z" fill="#6b3a19"/><path d="m107.571 112.513-91.292-11.647v-45.022l91.292 21.414z" fill="#f68536"/><path d="m239.656 82.225-91.292 15.691v36.852l91.292-5.478.531-1.04-.187-45.187z" fill="#9d5025"/><path d="m256 131.063-16.344-2.125v-46.713l16.344 5.985z" fill="#f68536"/></svg>

<?xml version="1.0" encoding="UTF-8" standalone="no"?>
<svg width="256px" height="310px" viewBox="0 0 256 310" version="1.1" xmlns="http://www.w3.org/2000/svg" xmlns:xlink="http://www.w3.org/1999/xlink" preserveAspectRatio="xMidYMid">
	<g>
		<path d="M73.871,282.05 L127.968,309.101 L133.252,305.159 L131.028,3.598 L127.968,0 L73.871,27.051 L73.871,282.05" fill="#9D5025"></path>
		<path d="M182.065,282.05 L127.968,309.101 L127.968,0 L182.065,27.051 L182.065,282.05" fill="#F68536"></path>
		<path d="M107.571,112.513 L88.587,115.277 L0,105.296 L0.375,104.313 L14.75,100 L16.279,100.866 L16.625,100 L107,110.563 L107.571,112.513" fill="#6B3A19"></path>
		<path d="M0,63.988 L16.279,55.844 L16.279,100.866 L0,105.296 L0,63.988" fill="#9D5025"></path>
		<path d="M256,131.063 L165.339,135.932 L148.364,134.768 L151.562,133.438 L239.937,128.375 L256,131.063" fill="#6B3A19"></path>
		<path d="M107.571,112.513 L16.279,100.866 L16.279,55.844 L107.571,77.258 L107.571,112.513" fill="#F68536"></path>
		<path d="M239.656,82.225 L148.364,97.916 L148.364,134.768 L239.656,129.29 L240.187,128.25 L240,83.063 L239.656,82.225" fill="#9D5025"></path>
		<path d="M256,131.063 L239.656,128.938 L239.656,82.225 L256,88.21 L256,131.063" fill="#F68536"></path>
	</g>
</svg>
